X:60
T:RVW2/2/60 Admiral Benbow
C:James Punt, East Horndon, Essex, 23 April 1904
L:1/8
Q:1/4=100
M:2/4
I:linebreak $
K:G
"^(Editorial suggestion  " D | GG AF | G2 AB | c2 BA | (Ac) (BA) |$ GB AG | A2 GE | D4- | 
w: Come|all you sea- men|brave Lon- don|near Lon- don|near _ Come _|all you sea- men|brave Lon- don|near|
w: ||* (lend an|ear lend an|ear _ ?) *||* (lend an|ear|
D2 (B>c) |$ dB GB | (dB) cd | e(c/B/) AG | D2 DF |$ G>G GG | (ED) CC | D2 (D/E/)F | G3 |] 
w: _ It's _|of an ad- miral|famed _ call- ï¿½d|Ben- bow _ by his|name and he|fought the ra- ging|main _ you shall|hear you _ shall|hear.|
w: _ ?) *|||||||||



